icons/kik.svg

<?xml version="1.0" encoding="UTF-8" standalone="no"?>
<svg
   xmlns:dc="http://purl.org/dc/elements/1.1/"
   xmlns:cc="http://creativecommons.org/ns#"
   xmlns:rdf="http://www.w3.org/1999/02/22-rdf-syntax-ns#"
   xmlns:svg="http://www.w3.org/2000/svg"
   xmlns="http://www.w3.org/2000/svg"
   xmlns:sodipodi="http://sodipodi.sourceforge.net/DTD/sodipodi-0.dtd"
   xmlns:inkscape="http://www.inkscape.org/namespaces/inkscape"
   id="svg8"
   version="1.1"
   viewBox="0 0 79.374998 79.375002"
   height="300"
   width="300"
   sodipodi:docname="kik.svg"
   inkscape:version="0.92.4 (5da689c313, 2019-01-14)">
  <sodipodi:namedview
     pagecolor="#ffffff"
     bordercolor="#666666"
     borderopacity="1"
     objecttolerance="10"
     gridtolerance="10"
     guidetolerance="10"
     inkscape:pageopacity="0"
     inkscape:pageshadow="2"
     inkscape:window-width="1271"
     inkscape:window-height="922"
     id="namedview7"
     showgrid="false"
     inkscape:zoom="2.2250293"
     inkscape:cx="152.02433"
     inkscape:cy="142.01794"
     inkscape:window-x="637"
     inkscape:window-y="38"
     inkscape:window-maximized="0"
     inkscape:current-layer="svg8" />
  <defs
     id="defs2" />
  <metadata
     id="metadata5">
    <rdf:RDF>
      <cc:Work
         rdf:about="">
        <dc:format>image/svg+xml</dc:format>
        <dc:type
           rdf:resource="http://purl.org/dc/dcmitype/StillImage" />
        <dc:title />
      </cc:Work>
    </rdf:RDF>
  </metadata>
  <g
     transform="matrix(0.62561814,0,0,0.62561814,16.250127,-120.45273)"
     id="layer1">
    <path
       id="rect825"
       transform="matrix(0.26458333,0,0,0.26458333,0,217.62499)"
       d="M 19.917969,67.867188 C 14.677763,67.840929 9.5310041,70.590052 6.8515625,76.125 c -1.8825951,3.888945 -1.921875,5.170544 -1.921875,64.59375 0,59.21518 0.044172,60.71634 1.9003906,64.55078 3.6431459,7.52576 11.4863189,10.40859 18.9687499,6.97266 7.631205,-3.50427 9.639392,-8.26435 9.697266,-22.98633 l 0.04102,-10.35547 3.751953,-2.97266 c 2.063932,-1.63468 3.886501,-2.81795 4.050782,-2.6289 0.164296,0.18897 6.390994,8.56745 13.835937,18.61914 14.525122,19.61087 16.423746,21.3245 23.740235,21.41211 5.459251,0.0654 9.66042,-2.17369 12.703125,-6.77149 2.095128,-3.16599 2.373001,-4.41356 2.033203,-9.11132 -0.387825,-5.36164 -0.60878,-5.73532 -14.859375,-25.11719 L 66.328125,152.65625 77.287109,141.81836 c 11.873367,-11.74159 13.726218,-15.05923 12.410157,-22.21289 -0.870501,-4.73174 -7.097689,-10.96009 -11.84961,-11.85156 -6.966913,-1.307 -9.796545,0.44359 -26.40625,16.33593 L 36,138.86328 35.537109,108.95312 C 35.142728,83.515431 34.844491,78.625951 33.544922,76.257812 30.491697,70.694102 25.158175,67.893446 19.917969,67.867188 Z m 161.376951,0 c -5.2402,-0.02626 -10.38696,2.720911 -13.0664,8.255859 -1.8826,3.888945 -1.92188,5.172497 -1.92188,64.595703 0,59.21518 0.0442,60.71634 1.90039,64.55078 3.74525,7.73669 12.45721,10.4853 20.33008,6.41406 6.29841,-3.25704 8.28155,-8.59288 8.33594,-22.42773 l 0.041,-10.35547 3.75196,-2.97266 c 2.06392,-1.63468 3.88899,-2.81795 4.05468,-2.6289 0.1657,0.18897 6.40498,8.57442 13.86524,18.63476 14.5872,19.67116 16.44561,21.33985 23.77344,21.33985 5.5791,0 9.61013,-2.14334 12.63671,-6.7168 2.09514,-3.166 2.37301,-4.41161 2.03321,-9.10937 -0.38783,-5.36164 -0.60878,-5.73532 -14.85938,-25.11719 l -14.46484,-19.67383 10.95898,-10.83789 c 11.87337,-11.74159 13.72622,-15.05923 12.41016,-22.21289 -0.8705,-4.73174 -7.09769,-10.96009 -11.84961,-11.85156 -6.96691,-1.307 -9.79655,0.44359 -26.40625,16.33593 l -15.44141,14.77344 -0.46289,-29.91016 c -0.39438,-25.437689 -0.69262,-30.327169 -1.99218,-32.695308 -3.05323,-5.56371 -8.38675,-8.364366 -13.62696,-8.390624 z m -52.16211,39.708982 c -3.11386,0.0502 -6.2234,1.02258 -8.82617,3.00781 -5.96853,4.55241 -5.9375,4.2771 -5.9375,50.1504 0,40.88137 0.0266,41.4529 2.03125,45.01953 4.18301,7.44268 12.53453,9.82913 20.37891,5.82226 3.24469,-1.65736 6.10714,-5.38506 7.32617,-9.53906 0.64758,-2.20668 0.88527,-17.14087 0.69531,-43.69727 -0.28743,-40.18223 -0.29692,-40.35738 -2.41016,-43.75586 -2.86908,-4.614 -8.06804,-7.09147 -13.25781,-7.00781 z m 150.77149,31.63477 c -11.87246,0.11766 -22.2276,14.19567 -13.26172,26.78711 4.76796,6.69596 16.62675,8.29695 23.36914,3.15429 8.29674,-6.32825 9.01729,-17.42803 1.61133,-24.83398 -3.63562,-3.63562 -7.76127,-5.14664 -11.71875,-5.10742 z"
       style="opacity:1;fill:#ffffff;fill-opacity:1;fill-rule:evenodd;stroke:#ffffff;stroke-width:0;stroke-linecap:square;stroke-linejoin:round;stroke-miterlimit:4;stroke-dasharray:none;stroke-opacity:1;paint-order:normal"
       inkscape:connector-curvature="0" />
  </g>
</svg>

<?xml version="1.0" encoding="UTF-8" standalone="no"?>
<svg
   xmlns:dc="http://purl.org/dc/elements/1.1/"
   xmlns:cc="http://creativecommons.org/ns#"
   xmlns:rdf="http://www.w3.org/1999/02/22-rdf-syntax-ns#"
   xmlns:svg="http://www.w3.org/2000/svg"
   xmlns="http://www.w3.org/2000/svg"
   id="svg8"
   version="1.1"
   viewBox="0 0 79.374998 79.375002"
   height="300"
   width="300">
  <defs
     id="defs2" />
  <metadata
     id="metadata5">
    <rdf:RDF>
      <cc:Work
         rdf:about="">
        <dc:format>image/svg+xml</dc:format>
        <dc:type
           rdf:resource="http://purl.org/dc/dcmitype/StillImage" />
        <dc:title></dc:title>
      </cc:Work>
    </rdf:RDF>
  </metadata>
  <g
     transform="translate(0,-217.62499)"
     id="layer1">
    <path
       id="rect825"
       transform="matrix(0.26458333,0,0,0.26458333,0,217.62499)"
       d="M 19.917969 67.867188 C 14.677763 67.840929 9.5310041 70.590052 6.8515625 76.125 C 4.9689674 80.013945 4.9296875 81.295544 4.9296875 140.71875 C 4.9296875 199.93393 4.9738595 201.43509 6.8300781 205.26953 C 10.473224 212.79529 18.316397 215.67812 25.798828 212.24219 C 33.430033 208.73792 35.43822 203.97784 35.496094 189.25586 L 35.537109 178.90039 L 39.289062 175.92773 C 41.352994 174.29305 43.175563 173.10978 43.339844 173.29883 C 43.50414 173.4878 49.730838 181.86628 57.175781 191.91797 C 71.700903 211.52884 73.599527 213.24247 80.916016 213.33008 C 86.375267 213.39546 90.576436 211.15639 93.619141 206.55859 C 95.714269 203.3926 95.992142 202.14503 95.652344 197.44727 C 95.264519 192.08563 95.043564 191.71195 80.792969 172.33008 L 66.328125 152.65625 L 77.287109 141.81836 C 89.160476 130.07677 91.013327 126.75913 89.697266 119.60547 C 88.826765 114.87373 82.599577 108.64538 77.847656 107.75391 C 70.880743 106.44691 68.051111 108.1975 51.441406 124.08984 L 36 138.86328 L 35.537109 108.95312 C 35.142728 83.515431 34.844491 78.625951 33.544922 76.257812 C 30.491697 70.694102 25.158175 67.893446 19.917969 67.867188 z M 181.29492 67.867188 C 176.05472 67.840929 170.90796 70.588099 168.22852 76.123047 C 166.34592 80.011992 166.30664 81.295544 166.30664 140.71875 C 166.30664 199.93393 166.3508 201.43509 168.20703 205.26953 C 171.95228 213.00622 180.66424 215.75483 188.53711 211.68359 C 194.83552 208.42655 196.81866 203.09071 196.87305 189.25586 L 196.91406 178.90039 L 200.66602 175.92773 C 202.72994 174.29305 204.55501 173.10978 204.7207 173.29883 C 204.8864 173.4878 211.12568 181.87325 218.58594 191.93359 C 233.17314 211.60475 235.03155 213.27344 242.35938 213.27344 C 247.93848 213.27344 251.96951 211.1301 254.99609 206.55664 C 257.09123 203.39064 257.3691 202.14503 257.0293 197.44727 C 256.64147 192.08563 256.42052 191.71195 242.16992 172.33008 L 227.70508 152.65625 L 238.66406 141.81836 C 250.53743 130.07677 252.39028 126.75913 251.07422 119.60547 C 250.20372 114.87373 243.97653 108.64538 239.22461 107.75391 C 232.2577 106.44691 229.42806 108.1975 212.81836 124.08984 L 197.37695 138.86328 L 196.91406 108.95312 C 196.51968 83.515431 196.22144 78.625951 194.92188 76.257812 C 191.86865 70.694102 186.53513 67.893446 181.29492 67.867188 z M 129.13281 107.57617 C 126.01895 107.62637 122.90941 108.59875 120.30664 110.58398 C 114.33811 115.13639 114.36914 114.86108 114.36914 160.73438 C 114.36914 201.61575 114.39574 202.18728 116.40039 205.75391 C 120.5834 213.19659 128.93492 215.58304 136.7793 211.57617 C 140.02399 209.91881 142.88644 206.19111 144.10547 202.03711 C 144.75305 199.83043 144.99074 184.89624 144.80078 158.33984 C 144.51335 118.15761 144.50386 117.98246 142.39062 114.58398 C 139.52154 109.96998 134.32258 107.49251 129.13281 107.57617 z M 279.9043 139.21094 C 268.03184 139.3286 257.6767 153.40661 266.64258 165.99805 C 271.41054 172.69401 283.26933 174.295 290.01172 169.15234 C 298.30846 162.82409 299.02901 151.72431 291.62305 144.31836 C 287.98743 140.68274 283.86178 139.17172 279.9043 139.21094 z "
       style="opacity:1;fill:#ffffff;fill-opacity:1;fill-rule:evenodd;stroke:#ffffff;stroke-width:0;stroke-linecap:square;stroke-linejoin:round;stroke-miterlimit:4;stroke-dasharray:none;stroke-opacity:1;paint-order:normal" />
  </g>
</svg>
